!!!OTL: 高嶺の花子さん
**kern	**kern	**kern	**kern	**kern	**kern
*part6	*part5	*part4	*part3	*part2	*part1
*staff6	*staff5	*staff4	*staff3	*staff2	*staff1
*I"ドラムセット	*I"バス	*I"テナー	*I"アルト	*I"アルト	*I"テナー
*I'Drs.	*I'B.	*I'T.	*I'A.	*I'A.	*I'T.
*clefX	*clefF4	*clefGv2	*clefG2	*clefG2	*clefGv2
*k[]	*k[f#c#g#]	*k[f#c#g#]	*k[f#c#g#]	*k[f#c#g#]	*k[f#c#g#]
*M4/4	*M4/4	*M4/4	*M4/4	*M4/4	*M4/4
*MM136	*MM136	*MM136	*MM136	*MM136	*MM136
=1	=1	=1	=1	=1	=1
*^	*	*	*	*	*
1r	8.Rf\L	8.DDL	8.AL	8.c#L	8.f#L	2r
.	16Rf\Jk	16DDJk	16AJk	16c#Jk	16f#Jk	.
.	8r	8r	8r	8r	8r	.
.	8Rf\	8DD	8A	8c#	8f#	.
.	2r	2r	2r	2r	2r	8r
.	.	.	.	.	.	8AL
.	.	.	.	.	.	8A
.	.	.	.	.	.	8AJ
*v	*v	*	*	*	*	*
=2	=2	=2	=2	=2	=2
1r	1r	1r	1r	1r	8.f#L
.	.	.	.	.	8.eJ
.	.	.	.	.	4d
.	.	.	.	.	8c#L
.	.	.	.	.	8d
.	.	.	.	.	[8eJ
=3	=3	=3	=3	=3	=3
*^	*	*	*	*	*
1r	8.Rf\L	8.AAL	8.BL	8.c#L	8.eL	2e]
.	16Rf\Jk	16AAJk	16BJk	16c#Jk	16eJk	.
.	8r	8r	8r	8r	8r	.
.	8Rf\	8AA	8B	8c#	8e	.
.	2r	2r	2r	2r	2r	8r
.	.	.	.	.	.	8c#L
.	.	.	.	.	.	8B
.	.	.	.	.	.	[8AJ
*v	*v	*	*	*	*	*
=4	=4	=4	=4	=4	=4
4r	4r	4r	4r	4r	2A]
8Rf\L	4AA	4B	4c#	4e	.
16Rgg\L	.	.	.	.	.
16Rcc\JJ	.	.	.	.	.
8Rf\L	4AA	4B	4c#	4f#	4r
16Rgg\L	.	.	.	.	.
16Rcc\JJ	.	.	.	.	.
4Rf\	4C#	4A	4e	4a	8F#L
.	.	.	.	.	8AJ
=5	=5	=5	=5	=5	=5
*^	*	*	*	*	*
1r	8.Rf\L	8.DL	8.AL	8.f#L	8.bL	4d
.	16Rf\Jk	16DJk	16AJk	16f#Jk	16bJk	.
.	8r	8r	8r	8r	8r	8c#
.	8Rf\	8D	8A	8f#	8b	4d
.	4.r	4.r	2r	2r	2r	.
.	.	.	.	.	.	8.c#L
.	.	.	.	.	.	16c#K
.	8Rcc/	8BB	.	.	.	[8dJ
=6	=6	=6	=6	=6	=6	=6
1r	8.Rf\L	8.EEL	8.BL	8.dL	8.g#L	8d]
.	.	.	.	.	.	4c#
.	16Rf\Jk	16EEJk	16BJk	16dJk	16g#Jk	.
.	8r	8r	8r	8r	8r	.
.	8Rf\	8EE	8B	8d	8g#	4d
.	4.r	4.r	2r	2r	2r	.
.	.	.	.	.	.	8e
.	.	.	.	.	.	[4c#
.	8Rcc/	8GG#	.	.	.	.
=7	=7	=7	=7	=7	=7	=7
1r	8.Rf\L	8.AAL	8.BL	8.c#L	8.eL	2.c#]
.	16Rf\Jk	16AAJk	16BJk	16c#Jk	16eJk	.
.	8r	8r	8r	8r	8r	.
.	8Rf\	8AA	8B	8c#	8e	.
.	8r	2rF	4r	2r	2r	.
.	16Rf\LL	.	.	.	.	.
.	16Rcc\JJ	.	.	.	.	.
.	8Rgg/L	.	8r	.	.	8r
.	16Rgg/L	.	8B	.	.	8B
.	16Rcc/JJ	.	.	.	.	.
=8	=8	=8	=8	=8	=8	=8
1r	1r	2r	4A	1r	1r	1A
.	.	.	2G#	.	.	.
.	.	4F#	.	.	.	.
.	.	4FF#	4F#	.	.	.
=9	=9	=9	=9	=9	=9	=9
1r	8Rf\L	8.DDL	8.AL	8.c#L	8.f#L	2r
.	16Rgg\L	.	.	.	.	.
.	16Rcc\JJ	16DDJk	16AJk	16c#Jk	16f#Jk	.
.	8Rgg/L	8r	8r	8r	8r	.
.	8Rcc/J	8DD	8A	8c#	8f#	.
.	16Rf\LL	8r	4r	4r	4r	8r
.	16Rcc\	.	.	.	.	.
.	16Rgg\J	4DD	.	.	.	8F#L
.	8Rcc\	.	.	.	.	.
.	.	.	4B	4d	4g#	8F#
.	16Rf\K	.	.	.	.	.
.	8Rcc\J	8DD	.	.	.	8F#J
=10	=10	=10	=10	=10	=10	=10
1r	8Rf\L	8.DDL	8.c#L	8.f#L	8.aL	8.f#L
.	16Rgg\L	.	.	.	.	.
.	16Rcc\JJ	16DDJk	16c#Jk	16f#Jk	16aJk	8.g#J
.	8Rgg/L	8r	8r	8r	8r	.
.	8Rcc/J	8DD	8c#	8f#	8a	4e
.	16Rf\LL	8r	4r	4r	4r	.
.	16Rcc\	.	.	.	.	.
.	16Rgg\J	4DD	.	.	.	8c#L
.	8Rcc\	.	.	.	.	.
.	.	.	4A	4d	4f#	8d
.	16Rf\K	.	.	.	.	.
.	8Rcc\J	8DD	.	.	.	[8eJ
=11	=11	=11	=11	=11	=11	=11
1r	8Rf\L	8.AAL	8.BL	8.c#L	8.eL	2e_
.	16Rgg\L	.	.	.	.	.
.	16Rcc\JJ	16AAJk	16BJk	16c#Jk	16eJk	.
.	8Rgg/L	8r	8r	8r	8r	.
.	8Rcc/J	8AA	8B	8c#	8e	.
.	16Rf\LL	8r	4r	4r	4r	8eL]
.	16Rcc\	.	.	.	.	.
.	16Rgg\J	4AA	.	.	.	8c#
.	8Rcc\	.	.	.	.	.
.	.	.	4A	4c#	4f#	8B
.	16Rf\K	.	.	.	.	.
.	8Rcc\J	8AA	.	.	.	[8AJ
=12	=12	=12	=12	=12	=12	=12
1r	8Rf\L	8.AAL	8.BL	8.c#L	8.eL	4A]
.	16Rgg\L	.	.	.	.	.
.	16Rcc\JJ	16AAJk	16BJk	16c#Jk	16eJk	.
.	8Rgg/L	8r	8r	8r	8r	8F#L
.	8Rcc/J	8AA	8B	8c#	8e	8F#J
.	16Rf\LL	8r	4r	4r	4r	8F#L
.	16Rcc\	.	.	.	.	.
.	16Rgg\J	4AA	.	.	.	8A
.	8Rcc\	.	.	.	.	.
.	.	.	4B	4c#	4e	8c#
.	16Rf\K	.	.	.	.	.
.	8Rcc\J	8AA	.	.	.	8c#J
=13	=13	=13	=13	=13	=13	=13
8Rbb/	8r	8.BBL	8.AL	8.dL	8.f#L	8dL
8r	16r	.	.	.	.	8d
.	16Rcc/	16BBJk	16AJk	16dJk	16f#Jk	.
4r	8Rgg/L	8r	8r	8r	8r	8c#
.	8Rcc/J	8BB	8A	8d	8f#	8dJ
2r	16Rf\LL	8r	4r	4r	4r	8r
.	16Rcc\	.	.	.	.	.
.	16Rgg\J	4BB	.	.	.	8dL
.	8Rcc\	.	.	.	.	.
.	.	.	4B	4d	4g#	8e
.	16Rf\K	.	.	.	.	.
.	8Rcc\J	8BB	.	.	.	[8c#J
=14	=14	=14	=14	=14	=14	=14
1r	8Rf\L	8.EEL	8.BL	8.dL	8.g#L	8c#]
.	16Rgg\L	.	.	.	.	4B
.	16Rcc\JJ	16EEJk	16BJk	16dJk	16g#Jk	.
.	8Rgg/L	8r	8r	8r	8r	.
.	8Rcc/J	8EE	8B	8d	8g#	4A
.	16Rf\LL	8r	8r	8r	8r	.
.	16Rcc\	.	.	.	.	.
.	16Rgg\J	4EE	8EL	8eL	8eL	8EL
.	8Rcc\	.	.	.	.	.
.	.	.	8G#	8B	8d	8B
.	16Rf\K	.	.	.	.	.
.	8Rcc\J	8EE	8G#J	8BJ	8dJ	8BJ
=15	=15	=15	=15	=15	=15	=15
1r	8Rf\L	8.AAL	2A	2c#	2e	1A
.	16Rgg\L	.	.	.	.	.
.	16Rcc\JJ	16AAJk	.	.	.	.
.	8Rgg/L	8r	.	.	.	.
.	8Rcc/J	8AA	.	.	.	.
.	16Rf\LL	8.AAL	4A	4c#	4e	.
.	16Rcc\	.	.	.	.	.
.	16Rgg\J	.	.	.	.	.
.	8Rcc\	16AAJk	.	.	.	.
.	.	8r	4Gn	4B	4d	.
.	16Rf\K	.	.	.	.	.
.	8Rcc\J	8AA	.	.	.	.
=16	=16	=16	=16	=16	=16	=16
1r	8Rf\L	8.AAL	4A	4c#	4e	2r
.	16Rgg\L	.	.	.	.	.
.	16Rcc\JJ	16AAJk	.	.	.	.
.	8r	8r	4B	4d	4f#	.
.	8Rf/	8AA	.	.	.	.
.	8r	8r	4c#	4c#	4e	4r
.	8Rf\	8AA	.	.	.	.
.	16Rgg/LL	8r	4e	4c#	4e	8F#L
.	16Rcc/J	.	.	.	.	.
.	8Rf/J	8AA	.	.	.	8F#J
=17	=17	=17	=17	=17	=17	=17
1r	2Rf\	(2BBB	4r	4r	4r	4d
.	.	.	4B	4d	4g#	8c#
.	.	.	.	.	.	4B
.	2Rcc/	2BB)	2B	2d	2f#	.
.	.	.	.	.	.	8AL
.	.	.	.	.	.	8A
.	.	.	.	.	.	8BJ
=18	=18	=18	=18	=18	=18	=18
1rdd	6Rf\	6FF#'	4.A	4.c#	4.e	4c#
.	6Rf\	6FF#'	.	.	.	.
.	.	.	.	.	.	8r
.	6Rf\	6FF#'	.	.	.	.
.	.	.	4.c#	4.f#	4.g#	8c#
.	8r	8r	.	.	.	8c#L
.	16Rf\LL	4FF#	.	.	.	8B
.	16Rcc\JJ	.	.	.	.	.
.	8Rgg/L	.	4c#	4f#	4a	8A
.	16Rf/L	8FF#	.	.	.	8BJ
.	16Rcc/JJ	.	.	.	.	.
=19	=19	=19	=19	=19	=19	=19
1r	8Rf\L	8.DL	2r	4r	4r	4a
.	16Rgg\L	.	.	.	.	.
.	16Rcc\JJ	8.AA	.	.	.	.
.	8r	.	.	4g#	4b	8g#
.	8Rf/	8.DD	.	.	.	4f#
.	8r	.	4r	(4f#	(4a	.
.	.	16DDJk	.	.	.	.
.	8Rf\	8r	.	.	.	4e
.	16Rgg/LL	8DDL	4B	4d)	4f#)	.
.	16Rcc/J	.	.	.	.	.
.	8Rf/J	8FF#J	.	.	.	[8e
=20	=20	=20	=20	=20	=20	=20
1r	8.Rf\L	8.AAL	2A	2c#	2e	4e]
.	16Rf\Jk	16AAJk	.	.	.	.
.	8r	8r	.	.	.	8r
.	8Rf\	8AA	.	.	.	8c#
.	4Rf\	4AAA 4AA	4r	4r	4r	4B
.	4Rf\	8AAAL 8FF#	4A	4d	4f#	8F#L
.	.	8DDJ	.	.	.	8AJ
=21	=21	=21	=21	=21	=21	=21
1r	8Rf\L	8BBL	2d	2e	2f#	8BL
.	16Rgg\L	8BB	.	.	.	8B
.	16Rcc\JJ	.	.	.	.	.
.	8Rgg/L	8BB	.	.	.	8c#
.	8Rcc/J	8BBJ	.	.	.	8c#J
.	16Rf\LL	8BBL	4c#	4d	4g#	4F#
.	16Rcc\	.	.	.	.	.
.	16Rgg\J	8BB	.	.	.	.
.	8Rcc\	.	.	.	.	.
.	.	8BB	4B	4e	4f#	8AL
.	16Rf\K	.	.	.	.	.
.	8Rcc\J	8BBJ	.	.	.	8AJ
=22	=22	=22	=22	=22	=22	=22
1r	8Rf\L	8FF#L	2c#	2f#	2a	8BL
.	16Rgg\L	8FF#	.	.	.	8A
.	16Rcc\JJ	.	.	.	.	.
.	8Rgg/L	8FF#	.	.	.	8B
.	8Rcc/J	8FF#J	.	.	.	8AJ
.	16Rf\LL	8FF#L	4r	4r	4r	4c#
.	16Rcc\	.	.	.	.	.
.	16Rgg\J	8FF#	.	.	.	.
.	8Rcc\	.	.	.	.	.
.	.	8FF#	8AL	8c#L	8f#L	8BL
.	16Rf\K	.	.	.	.	.
.	8Rcc\J	8FF#J	(8AJ	(8c#J	(8f#J	(8BJ
*v	*v	*	*	*	*	*
=23	=23	=23	=23	=23	=23
8Rf\L	8DDL	8AL	8dL	8f#L	8c#L)
8Rf\	8DD	8A)	8d)	8f#)	8B
8Rf\	8DD	8A	8d	8f#	8B
8Rf\J	8DDJ	8AJ	8dJ	8f#J	8c#J
2r	2r	4r	4r	4r	8r
.	.	.	.	.	8eL
.	.	4A	4d	4a	8e
.	.	.	.	.	8eJ
=24	=24	=24	=24	=24	=24
1r	1r	1B	1e	1g#	8f#L
.	.	.	.	.	8e
.	.	.	.	.	8eJ
.	.	.	.	.	4c#
.	.	.	.	.	8d
.	.	.	.	.	4c#
=25	=25	=25	=25	=25	=25
1r	8r	8r	8r	8r	8r
.	8AAL	8AL	8aL	8aL	8AL
.	8AA	8A	8a	8a	8A
.	8FF#J	8F#J	8f#J	8f#J	8F#J
.	8AAL	8AL	8aL	8aL	8AL
.	8EE	8A	8c#	8g#	8A
.	8BBB	8G#	8d	8f#	8B
.	8BBBJ	8G#J	8dJ	8f#J	8BJ
=26	=26	=26	=26	=26	=26
2r	8CC#L	8G#L	8f#L	8cc#L	8c#L
.	8CC#	8G#	8fn	8ccn	8cn
.	8CC#	8G#	8f	8cc	8c
.	8CC#J	8G#J	8f#XJ	8cc#XJ	8c#XJ
8r	2r	8r	8r	8r	8r
16Rf\LL	.	8c#L	8c#L	8c#L	8c#L
16Rcc\JJ	.	.	.	.	.
8Rgg/L	.	8c#	8c#	8c#	8c#
16Rf/L	.	8eJ	8eJ	8eJ	8eJ
16Rcc/JJ	.	.	.	.	.
=27	=27	=27	=27	=27	=27
*^	*	*	*	*	*
1r	8Rf\L	4D	8dL	8f#L	8aL	8f#L
.	8Rgg\J	.	8d	8e	8f#	8A
.	16Rcc/	16D	8d	8e	8f#	8A
.	16r	8r	.	.	.	.
.	16Rf\LL	.	8dJ	8eJ	8f#J	8AJ
.	16Rcc\JJ	16AA	.	.	.	.
.	16Rf\LL	16D	8dL	8f#L	8aL	8AL
.	16Rcc\J	16r	.	.	.	.
.	8Rf\J	4D	8d	8f#	8a	8A
.	8Rcc/L	.	8d	8f#	8a	8a
.	16Rgg/L	8D	8dJ	8f#J	8aJ	8aJ
.	16Rcc/JJ	.	.	.	.	.
=28	=28	=28	=28	=28	=28	=28
1r	8Rf\L	8EL	4d	4g#	4b	4g#
.	8Rgg\J	8E	.	.	.	.
.	16Rcc/	8EE	8d	8f#	8b	8a
.	16r	.	.	.	.	.
.	16Rf\LL	8EEJ	4c#	4e	4b	4g#
.	16Rcc\JJ	.	.	.	.	.
.	16r	8FF#L	.	.	.	.
.	16Rf\LL	.	.	.	.	.
.	16Rcc\JJ	8FF#	4B	4d	4a	4f#
.	16r	.	.	.	.	.
.	16Rf\LL	8GGn	.	.	.	.
.	16Rcc\	.	.	.	.	.
.	16Rgg\	8GGJ	8c#	8e	8gn	8e
.	16Rcc\JJ	.	.	.	.	.
=29	=29	=29	=29	=29	=29	=29
1r	8Rf\L	4C#	4r	4r	4r	8r
.	8Rgg\J	.	.	.	.	8eL
.	16Rcc/	16C#	4B	4e	4g#	8e
.	16r	8r	.	.	.	.
.	16Rf\LL	.	.	.	.	8c#J
.	16Rcc\JJ	16GG#	.	.	.	.
.	16Rf\LL	16C#	4r	4r	4r	8eL
.	16Rcc\J	16r	.	.	.	.
.	8Rf\J	4C#	.	.	.	8c#
.	8Rcc/L	.	4c#	4gn	4b	8e
.	16Rgg/L	8C#	.	.	.	8gnJ
.	16Rcc/JJ	.	.	.	.	.
=30	=30	=30	=30	=30	=30	=30
1r	8Rf\L	8F#L	4c#	4f#	4b-X	4f#
.	8Rgg\J	8F#	.	.	.	.
.	16Rcc/	8FF#	8c#L	8f#L	8b-L	8gnL
.	16r	.	.	.	.	.
.	16Rf\LL	8FF#J	8c#J	8f#J	8b-J	8f#J
.	16Rcc\JJ	.	.	.	.	.
.	16r	8EE	4r	4r	4r	8c#
.	16Rf\LL	.	.	.	.	.
.	16Rcc\JJ	4EE	.	.	.	4c#
.	16r	.	.	.	.	.
.	16Rf\LL	.	4A	4c#	4f#	.
.	16Rcc\	.	.	.	.	.
.	16Rgg\	8DD	.	.	.	8d
.	16Rcc\JJ	.	.	.	.	.
=31	=31	=31	=31	=31	=31	=31
1r	8.Rf\L	4BBB	1A	1B	1d	8r
.	.	.	.	.	.	8dL
.	16Rf\Jk	.	.	.	.	.
.	16Rcc/	16BBB	.	.	.	8d
.	8r	8r	.	.	.	.
.	.	.	.	.	.	8dJ
.	8Rf\L	16FF#	.	.	.	.
.	.	16BBB	.	.	.	8dL
.	8Rf\	16r	.	.	.	.
.	.	4BBB	.	.	.	8c#
.	16Rf\Jk	.	.	.	.	.
.	8Rcc/L	.	.	.	.	8B
.	16Rgg/L	8BBB	.	.	.	8AJ
.	16Rcc/JJ	.	.	.	.	.
=32	=32	=32	=32	=32	=32	=32
1r	8.Rf\L	4EE	2G#	2B	2e	8AL
.	.	.	.	.	.	8G#
.	16Rf\Jk	.	.	.	.	.
.	16Rcc/	16EE	.	.	.	8G#J
.	8r	8r	.	.	.	.
.	.	.	.	.	.	4A
.	8Rf\L	16BBB	.	.	.	.
.	.	16EE	2B	2e	2g#	.
.	8Rf\	16r	.	.	.	.
.	.	4EE	.	.	.	4B
.	16Rf\Jk	.	.	.	.	.
.	8Rcc/L	.	.	.	.	.
.	16Rgg/L	8EE	.	.	.	8d
.	16Rcc/JJ	.	.	.	.	.
=33	=33	=33	=33	=33	=33	=33
1r	8.Rf\L	8.AAL	4r	4r	4r	8e
.	.	.	.	.	.	8r
.	8.Rf\	8.AA	.	.	.	.
.	.	.	8c#L	8eL	8aL	8eL
.	8Rf\J	8AAJ	8c#J	8eJ	8aJ	8eJ
.	16Rf\	16AA	16c#	16e	16a	8eL
.	16r	16r	16r	16r	16r	.
.	8r	8r	8r	8r	8r	8d
.	4r	4r	4r	4r	4r	8c#
.	.	.	.	.	.	8dJ
*v	*v	*	*	*	*	*
=34	=34	=34	=34	=34	=34
2r	2.r	4A	4c#	4e	2c#
.	.	8BL	8dL	8f#L	.
.	.	8c#J	8c#J	8eJ	.
8r	.	8r	8r	8r	8r
16Rf\LL	.	4.e	4.c#	4.a	8c#L
16Rcc\JJ	.	.	.	.	.
8Rgg/L	4AAA 4AA	.	.	.	8c#
16Rf/L	.	.	.	.	8eJ
16Rcc/JJ	.	.	.	.	.
=35	=35	=35	=35	=35	=35
*^	*	*	*	*	*
1r	8Rf\L	4D	8dL	8f#L	8aL	8f#L
.	8Rgg\J	.	8d	8e	8f#	8A
.	16Rcc/	16D	8d	8e	8f#	8A
.	16r	8r	.	.	.	.
.	16Rf\LL	.	8dJ	8eJ	8f#J	8AJ
.	16Rcc\JJ	16AA	.	.	.	.
.	16Rf\LL	16D	8dL	8f#L	8aL	8AL
.	16Rcc\J	16r	.	.	.	.
.	8Rf\J	4D	8d	8f#	8a	8A
.	8Rcc/L	.	8d	8f#	8a	8a
.	16Rgg/L	8D	8dJ	8f#J	8aJ	8aJ
.	16Rcc/JJ	.	.	.	.	.
=36	=36	=36	=36	=36	=36	=36
1r	8Rf\L	8EL	4d	4g#	4b	4g#
.	8Rgg\J	8E	.	.	.	.
.	16Rcc/	8EE	8d	8f#	8b	8a
.	16r	.	.	.	.	.
.	16Rf\LL	8EEJ	4c#	4e	4b	4g#
.	16Rcc\JJ	.	.	.	.	.
.	16r	8FF#L	.	.	.	.
.	16Rf\LL	.	.	.	.	.
.	16Rcc\JJ	8FF#	4B	4d	4a	4f#
.	16r	.	.	.	.	.
.	16Rf\LL	8GGn	.	.	.	.
.	16Rcc\	.	.	.	.	.
.	16Rgg\	8GGJ	8c#	8e	8gn	[8e
.	16Rcc\JJ	.	.	.	.	.
=37	=37	=37	=37	=37	=37	=37
1r	8Rf\L	4CC#	4r	4r	4r	8eL]
.	8Rgg\J	.	.	.	.	8c#
.	16Rcc/	16CC#	4B	4e	4g#	8e
.	16r	8r	.	.	.	.
.	16Rf\LL	.	.	.	.	8c#J
.	16Rcc\JJ	16GG#	.	.	.	.
.	16Rf\LL	16CC#	4r	4r	4r	8eL
.	16Rcc\J	16r	.	.	.	.
.	8Rf\J	4CC#	.	.	.	8c#
.	8Rcc/L	.	4d	4g#	4b	8e
.	16Rgg/L	8CC#	.	.	.	8bJ
.	16Rcc/JJ	.	.	.	.	.
=38	=38	=38	=38	=38	=38	=38
1r	8Rf\L	4FF#	2c#	2f#	2a	8bL
.	8Rgg\J	.	.	.	.	8a
.	16Rcc/	16FF#	.	.	.	8a
.	16r	8r	.	.	.	.
.	16Rf\LL	.	.	.	.	8g#J
.	16Rcc\JJ	16CC#	.	.	.	.
.	16r	16FF#	4r	4r	4r	8g#L
.	16Rf\LL	16r	.	.	.	.
.	16Rcc\JJ	4FF#	.	.	.	8a
.	16r	.	.	.	.	.
.	16Rf\LL	.	8c#L	8f#L	8aL	8a
.	16Rcc\	.	.	.	.	.
.	16Rgg\	8FF#	8BJ	8eJ	8g#J	[8cc#J
.	16Rcc\JJ	.	.	.	.	.
=39	=39	=39	=39	=39	=39	=39
1r	8.Rf\L	4BBB	4B	4e	4g#	4cc#]
.	16Rf\Jk	.	.	.	.	.
.	16Rcc/	16BBB	8BL	8eL	8g#L	8ddL
.	8r	8r	.	.	.	.
.	.	.	8BJ	8eJ	8g#J	8f#J
.	8Rf\L	16FF#	.	.	.	.
.	.	16BBB	8r	8r	8r	8r
.	8Rf\	16r	.	.	.	.
.	.	4BBB	4e	4e	4e	4e
.	16Rf\Jk	.	.	.	.	.
.	8Rcc/L	.	.	.	.	.
.	16Rgg/L	8BBB	[8B	[8c#	[8g#	[8e
.	16Rcc/JJ	.	.	.	.	.
=40	=40	=40	=40	=40	=40	=40
1r	8.Rf\L	4EE	4.B]	4.c#]	4.g#]	4e]
.	16Rf\Jk	.	.	.	.	.
.	16Rcc/	16EE	.	.	.	8b
.	8r	8r	.	.	.	.
.	.	.	[8A	[8c#	[8f#	4a
.	8Rf\L	16BB	.	.	.	.
.	.	16EE	2A]	2c#]	2f#]	.
.	8Rf\	16r	.	.	.	.
.	.	4EE	.	.	.	4g#
.	16Rf\Jk	.	.	.	.	.
.	8Rcc/L	.	.	.	.	.
.	16Rgg/L	8EE	.	.	.	[8a
.	16Rcc/JJ	.	.	.	.	.
=41	=41	=41	=41	=41	=41	=41
1r	8.Rf\L	4AA	2.c#	2.e	2.g#	2.a]
.	16Rf\Jk	.	.	.	.	.
.	16Rcc/	16AA	.	.	.	.
.	8r	8r	.	.	.	.
.	8r	16EE	.	.	.	.
.	.	16AA	.	.	.	.
.	8r	16r	.	.	.	.
.	.	4AA	.	.	.	.
.	16r	.	.	.	.	.
.	8r	.	4r	4r	4r	8r
.	16r	8AA	.	.	.	8e
.	16r	.	.	.	.	.
*v	*v	*	*	*	*	*
=42	=42	=42	=42	=42	=42
1r	1r	1r	1r	1r	4fn
.	.	.	.	.	8c#L
.	.	.	.	.	8c#J
.	.	.	.	.	8BL
.	.	.	.	.	8AJ
.	.	.	.	.	[4c#;
=43	=43	=43	=43	=43	=43
*MM80	*MM80	*MM80	*MM80	*MM80	*MM80
1r	2.r	2f#	2d	2a	1c#_
.	.	4e	2d	2g#	.
.	4E	4c#	.	.	.
=44	=44	=44	=44	=44	=44
1r	2C#	4B	2B	2e	2c#]
.	.	4e	.	.	.
.	8FF#	4c#	8c#	8f#	4r
.	8r	.	8r	8r	.
.	4AA	8F#L	4e	4f#	4c#
.	.	8AJ	.	.	.
=45	=45	=45	=45	=45	=45
1r	2DD	4B	2f#	2a	2d
.	.	4c#	.	.	.
.	2BB	4B	2e	2g#	2d
.	.	4A	.	.	.
=46	=46	=46	=46	=46	=46
1r	1FF#	1F#	1g#	1a	1c#
==	==	==	==	==	==
*-	*-	*-	*-	*-	*-
